svgs/thin/turntable.svg

<svg xmlns="http://www.w3.org/2000/svg" viewBox="0 0 576 512"><!-- Font Awesome Pro 6.0.0-alpha2 by @fontawesome - https://fontawesome.com License - https://fontawesome.com/license (Commercial License) --><path d="M224 224C206.326 224 192 238.326 192 256C192 273.672 206.326 288 224 288S256 273.672 256 256C256 238.326 241.674 224 224 224ZM224 272C215.178 272 208 264.822 208 256S215.178 240 224 240S240 247.178 240 256S232.822 272 224 272ZM512 32H64C28.654 32 0 60.652 0 96V416C0 451.346 28.654 480 64 480H512C547.346 480 576 451.346 576 416V96C576 60.652 547.346 32 512 32ZM560 416C560 442.467 538.467 464 512 464H64C37.533 464 16 442.467 16 416V96C16 69.533 37.533 48 64 48H512C538.467 48 560 69.533 560 96V416ZM504 96C499.578 96 496 99.594 496 104V241.344C496 254.938 492.781 268.531 486.703 280.719L464.398 325.326C446.557 321.441 434.598 330.422 429.088 341.414L417.689 364.154C409.766 379.967 416.17 399.209 431.988 407.119C450.789 416.514 468.588 405.453 474.912 392.834L486.311 370.096C492.904 356.938 489.162 341.789 478.744 332.387L501.016 287.844C508.203 273.5 512 257.406 512 241.344V104C512 99.594 508.422 96 504 96ZM472.006 362.926L460.609 385.664C451.074 404.68 422.539 390.195 431.994 371.322L443.393 348.584C452.922 329.566 481.461 344.053 472.006 362.926ZM224 96C135.635 96 64 167.635 64 256S135.635 416 224 416S384 344.365 384 256S312.365 96 224 96ZM224 400C144.598 400 80 335.402 80 256S144.598 112 224 112S368 176.598 368 256S303.402 400 224 400Z"/></svg>

<svg xmlns="http://www.w3.org/2000/svg" viewBox="0 0 576 512"><!--! Font Awesome Pro 6.3.0 by @fontawesome - https://fontawesome.com License - https://fontawesome.com/license (Commercial License) Copyright 2023 Fonticons, Inc. --><path d="M224 224C206.3 224 192 238.3 192 256c0 17.67 14.33 32 32 32s32-14.33 32-32C256 238.3 241.7 224 224 224zM224 272C215.2 272 208 264.8 208 256S215.2 240 224 240S240 247.2 240 256S232.8 272 224 272zM512 32H64C28.65 32 0 60.65 0 96v320c0 35.35 28.65 64 64 64h448c35.35 0 64-28.65 64-64V96C576 60.65 547.3 32 512 32zM560 416c0 26.47-21.53 48-48 48H64c-26.47 0-48-21.53-48-48V96c0-26.47 21.53-48 48-48h448c26.47 0 48 21.53 48 48V416zM504 96c-4.422 0-8 3.594-8 8v137.3c0 13.59-3.219 27.19-9.297 39.38l-22.3 44.61c-17.84-3.885-29.8 5.096-35.31 16.09l-11.4 22.74c-7.924 15.81-1.52 35.05 14.3 42.96c18.8 9.395 36.6-1.666 42.92-14.29l11.4-22.74c6.594-13.16 2.852-28.31-7.566-37.71l22.27-44.54C508.2 273.5 512 257.4 512 241.3V104C512 99.59 508.4 96 504 96zM472 362.9L460.6 385.7c-9.535 19.02-38.07 4.531-28.62-14.34l11.4-22.74C452.9 329.6 481.5 344.1 472 362.9zM224 96C135.6 96 64 167.6 64 256s71.63 160 160 160s160-71.63 160-160S312.4 96 224 96zM224 400c-79.4 0-144-64.6-144-144S144.6 112 224 112s144 64.6 144 144S303.4 400 224 400z"/></svg>
